!!!!SEGMENT: pl-cz--iii-745--001-010_zebrowski-marcin-jozef--missa-pastoralis-osanna.krn
!!!cenid: 17xx:2358
!!!COM: Żebrowski, Marcin Józef
!!!COM-rismID: pe30020322
!!!CDT: 1702-1770/06/29
!!!CNT: Polish
!!!OPR: Missa Pastoralis
!!!OTL: Osanna
!!!OMV: 010
!!!PDT:
!!!AGN:
!!!SMS-siglum: PL-CZ
!!!SMS-shelfmark: III-745
!!!SMS-shelfwork: 001-010 M
!!!SMS-variant:
!!!SMS-altvar:
!!!NIFC-rismSourceID: 300033497
!!!NIFC-rismChildID: 300033497
!!!NIFC-islandoraID: pl-cz:25279
!!!URL-pdf-islandora: https://repozytorium.nifc.pl/islandora/object/pl-cz%3A25279/datastream/PDF/view
!!!URL-scan: https://polish.musicsources.pl/pl/lokalizacje/galeria/rekopisy/1475 @EN{Scan on Polish Music Sources Website} @PL{Skany w portalu Dziedzictwo Muzyki Polskiej w otwartym dostępie}
!!!IIIF:
!!!ONB-nifc: UWAGA: części Mszy: 1. Kyrie, 2. Christe, 3. Et in terra, 4. Quoniam, 5. Patrem, 6. Et incarnatus, 7. Et resurrexit, 8. Sanctus, 9. Benedictus, 10. Osanna, 11. Agnus Dei
!!!AIN: 1 bass 2 clrno 1 organ 1 soprn 2 violn
!!!key: D
**kern	**fba	**kern	**kern	**kern	**text	**kern	**text	**kern	**kern
*	*	*group3	*group3	*group2	*	*group2	*	*group1	*group1
*part7	*part7	*part6	*part5	*part4	*part4	*part3	*	*part2	*part1
*staff7	*	*staff6	*staff5	*staff4	*staff4	*staff3	*	*staff2	*staff1
*I"Organo	*	*I"Violino Secundo	*I"Violino Primo.	*I"Baſso.	*	*I"Soprano o Canto.	*	*I"Clarino Secundo in D:	*I"Clarino Primo in D:
*I'org	*	*I'vl 2	*I'vl 1	*I'B	*	*I'S	*	*I'clno 2 in D	*I'clno 1 in D
*Iorgan	*	*Ivioln	*Ivioln	*Ibass	*	*Isoprn	*	*Iclrno	*Iclrno
*ICklav	*	*ICstr	*ICstr	*ICvox	*	*ICvox	*	*ICbras	*ICbras
*IGcont	*	*	*	*	*	*	*	*	*
*clefF4	*	*clefG2	*clefG2	*clefF4	*	*clefC1	*	*clefG2	*clefG2
*	*	*	*	*	*	*	*	*ITrd-1c-2	*ITrd-1c-2
*k[f#c#]	*	*k[f#c#]	*k[f#c#]	*k[f#c#]	*	*k[f#c#]	*	*k[f#c#]	*k[f#c#]
*D:	*	*D:	*D:	*D:	*	*D:	*	*D:	*D:
*M2/2	*	*M2/2	*M2/2	*M2/2	*	*M2/2	*	*M2/2	*M2/2
*met(c|)	*	*met(c|)	*met(c|)	*met(c|)	*	*met(c|)	*	*met(c|)	*met(c|)
=1	=1	=1	=1	=1	=1	=1	=1	=1	=1
*all\right	*	*	*	*	*	*	*	*	*
!LO:TX:a:i:t=T&colon;	!	!LO:TX:a:t=7	!LO:TX:a:i:t=allabre&colon;	!	!	!LO:TX:a:t=7	!	!LO:TX:a:t=14	!LO:TX:a:t=14
!LO:TX:a:i:t=Allo	!	!LO:TX:a:i:t=allo	!LO:TX:a:i:t=allo	!LO:TX:a:i:t=Allo.	!	!LO:TX:a:i:t=Allo.	!	!LO:TX:a:i:t=Allegro	!LO:TX:a:i:t=Allegro
4D\	.	00r	00r	4D\	O-	00r	.	00r	00r
4E\	.	.	.	4E\	.	.	.	.	.
*2\right	*	*	*	*2\right	*	*	*	*	*
[2F#\	.	.	.	[2F#\	.	.	.	.	.
=2	=2	=2	=2	=2	=2	=2	=2	=2	=2
4F#\]	.	.	.	4F#\]	.	.	.	.	.
4E\	.	.	.	4E\	.	.	.	.	.
[2G\	.	.	.	[2G\	.	.	.	.	.
=3	=3	=3	=3	=3	=3	=3	=3	=3	=3
4G\]	.	.	.	4G\]	.	.	.	.	.
4F#\	.	.	.	4F#\	.	.	.	.	.
[2A\	.	.	.	[2A\	.	.	.	.	.
=4	=4	=4	=4	=4	=4	=4	=4	=4	=4
4A\]	.	.	.	4A\]	.	.	.	.	.
4B\	.	.	.	4B\	.	.	.	.	.
4G\	.	.	.	4G\	.	.	.	.	.
4E\	.	.	.	4E\	.	.	.	.	.
=5	=5	=5	=5	=5	=5	=5	=5	=5	=5
4C#/	.	0r	00r	4C#/	.	0r	.	00r	00r
4AA/	.	.	.	4AA/	.	.	.	.	.
[2D/	.	.	.	[2D/	.	.	.	.	.
!	!	!	!	!LO:LB:g=original	!	!	!	!	!
=6	=6	=6	=6	=6	=6	=6	=6	=6	=6
!	!	!	!	!LO:TX:t=P:problem=brak zakończenia ligatury	!	!	!	!	!
2D/]	.	.	.	2D/]	.	.	.	.	.
2C#/	.	.	.	2C#/	-san-	.	.	.	.
!LO:LB:g=original	!	!	!	!	!	!	!	!	!
=7	=7	=7	=7	=7	=7	=7	=7	=7	=7
!LO:TX:t=P:problem=brzeg karty zaklejony, nuty niewidoczne	!	!	!	!	!	!	!	!	!
4ryy	.	1r	.	4D\	-na	1r	.	.	.
4B\	.	.	.	4B\	in	.	.	.	.
4A\	.	.	.	4A\	ex-	.	.	.	.
4G#X\	.	.	.	4G#X\	-cel-	.	.	.	.
=8	=8	=8	=8	=8	=8	=8	=8	=8	=8
1A	6 5	4a/	.	1A	-ſis	4a\	O-	.	.
.	.	4b/	.	.	.	4b\	.	.	.
*	*	*2\right	*	*	*	*2\right	*	*	*
.	8 6	[2cc#\	.	.	.	[2cc#\	.	.	.
=9	=9	=9	=9	=9	=9	=9	=9	=9	=9
1E	.	4cc#\]	00r	1E	O-	4cc#\]	.	00r	00r
.	.	4b\	.	.	.	4b\	.	.	.
.	.	[2dd\	.	.	.	[2dd\	.	.	.
=10	=10	=10	=10	=10	=10	=10	=10	=10	=10
1AA	4 9	4dd\]	.	1AA	.	4dd\]	.	.	.
.	3 8	4cc#\	.	.	.	4cc#\	.	.	.
.	.	[2ee\	.	.	.	[2ee\	.	.	.
=11	=11	=11	=11	=11	=11	=11	=11	=11	=11
2D\	6 5	4ee\]	.	2D/	.	4ee\]	.	.	.
.	.	4ff#\	.	.	.	4ff#\	.	.	.
!	!	!	!	!	!	!LO:LB:g=original	!	!	!
2d\	.	4dd\	.	[2d\	.	4dd\	.	.	.
.	.	4b\	.	.	.	4b\	.	.	.
=12	=12	=12	=12	=12	=12	=12	=12	=12	=12
2d\	4 2	4g#X/	.	2d\]	.	4g#X/	.	.	.
.	.	4e/	.	.	.	4e/	.	.	.
2c#\	6	[2a/	.	2c#\	.	[2a\	.	.	.
=13	=13	=13	=13	=13	=13	=13	=13	=13	=13
1B	7	2a/]	0r	1B	-san-	2a\]	.	0r	0r
.	6	2g#X/	.	.	.	2g#X\	-san-	.	.
=14	=14	=14	=14	=14	=14	=14	=14	=14	=14
4A\	.	4a/	.	4A\	-na	4a\	-na	.	.
4Gn\	2	4ee\	.	4Gn\	in	4ee\	in	.	.
4F#\	6	4dd\	.	4F#\	ex-	4dd\	ex-	.	.
4E\	6	4cc#\	.	4E\	-cel-	4cc#\	-cel-	.	.
!	!	!	!	!LO:LB:g=original	!	!	!	!	!
=15	=15	=15	=15	=15	=15	=15	=15	=15	=15
2.D\	.	[1dd	4dd\	2.D/	-sis	2dd\	-sis	1f#	4dd\
.	.	.	4ee\	.	.	.	.	.	4ee\
*	*	*	*2\right	*	*	*	*	*	*2\right
.	.	.	[2ff#\	.	.	[2dd\	o-	.	[2ff#\
4F#\	.	.	.	4F#\	O-	.	.	.	.
=16	=16	=16	=16	=16	=16	=16	=16	=16	=16
2A\	6 4	4dd\]	4ff#\]	2A\	.	4dd\]	.	1a	4ff#\]
.	5 3	4cc#\	4ee\	.	.	4cc#\	.	.	4ee\
4C#/	6 5	[2ee\	[2gg\	4C#/	.	[2ee\	-san-	.	[2gg\
4AA/	.	.	.	4AA/	.	.	.	.	.
=17	=17	=17	=17	=17	=17	=17	=17	=17	=17
2D\	4 9	4ee\]	4gg\]	2D/	.	4ee\]	.	1dd	4gg\]
.	.	4dd\	4ff#\	.	.	4dd\	.	.	4ff#\
4d\	3 8	2ff#\	[2aa\	4d\	.	2ff#\	-na	.	2aa\
4A\	.	.	.	4F#\	.	.	.	.	.
!LO:LB:g=original	!	!	!	!	!	!LO:LB:g=original	!	!	!LO:LB:g=original
=18	=18	=18	=18	=18	=18	=18	=18	=18	=18
!LO:TX:t=P:problem=brzeg karty zaklejony, nuty niewidoczne	!	!	!	!	!	!	!	!	!
1ryy	.	1b	4aa\]	[1G	-san-	1b	o-	2r	1bb
.	.	.	4bb\	.	.	.	.	.	.
*	*	*	*	*	*	*	*	*2\right	*
.	.	.	4gg\	.	.	.	.	2gg\	.
.	.	.	4ee\	.	.	.	.	.	.
=19	=19	=19	=19	=19	=19	=19	=19	=19	=19
2G\	4 2	1a	4cc#\	2G\]	.	1a	-san-	2ee\	1aa
.	.	.	4a\	.	.	.	.	.	.
2F#\	6	.	[2dd\	2F#\	.	.	.	2ff#\	.
!	!	!	!	!	!	!	!	!LO:LB:g=original	!
=20	=20	=20	=20	=20	=20	=20	=20	=20	=20
1E	7	1g	2dd\]	1E	.	1gT	.	2ee\	1gg
.	6	.	2cc#t\	.	.	.	.	2a/	.
!	!	!LO:LB:g=original	!LO:LB:g=original	!	!	!	!	!	!
=21	=21	=21	=21	=21	=21	=21	=21	=21	=21
4D/	5	4f#/	4dd\	4D/	-na	4f#/	-na	2dd\	4ff#\
4D/	6	4ff#\	4bb\	4d\	in	4ff#\	in	.	4bb\
4C#/	6	4ee\	4aa\	4c#\	ex-	4ee\	ex-	2ee\	4aa\
4BB/	6\	4dd\	4gg#X\	4B\	-cel-	4dd\	-cel-	.	4gg#X\
=22	=22	=22	=22	=22	=22	=22	=22	=22	=22
[1AA	5	[1ee [1cc#	(2aa\	1A	-sis	1cc#	-sis	2ee\	2aa\
.	.	.	4ee\)	.	.	.	.	2r	2r
.	.	.	4ccc#\	.	.	.	.	.	.
=23	=23	=23	=23	=23	=23	=23	=23	=23	=23
1AA]	.	1ee] 1cc#]	(2aa\	1A	o-	1cc#	o-	2a/	2ee\
.	.	.	4ee\)	.	.	.	.	2r	2r
.	.	.	4eee\	.	.	.	.	.	.
!	!	!	!	!LO:LB:g=original	!	!	!	!	!
=24	=24	=24	=24	=24	=24	=24	=24	=24	=24
1AA	.	[1ee [1cc#	(2aa\	1A	-ſan-	1cc#	-san-	[1a	[1ee
.	.	.	4ee\)	.	.	.	.	.	.
.	.	.	4ccc#\	.	.	.	.	.	.
=25	=25	=25	=25	=25	=25	=25	=25	=25	=25
4AA/	.	1ee] 1cc#]	2aa\	1A	-na	1cc#	-na	4a/]	4ee\]
4C#/	.	.	.	.	.	.	.	8a/L	8ee\L
.	.	.	.	.	.	.	.	8a/J	8ee\J
4E\|	.	.	2ee\	.	.	.	.	4a/	4ee\
4A\|	.	.	.	.	.	.	.	4a/	4ee\
=26	=26	=26	=26	=26	=26	=26	=26	=26	=26
[1AA	.	[1ee 1cc#	(4aa\	1A	in	1cc#	in	2a/	2ee\
.	.	.	8ee\L)	.	.	.	.	.	.
.	.	.	8ccc#\J	.	.	.	.	.	.
.	.	.	(4aa\	.	.	.	.	2r	2r
.	.	.	8ee\L)	.	.	.	.	.	.
.	.	.	8ccc#\J|	.	.	.	.	.	.
=27	=27	=27	=27	=27	=27	=27	=27	=27	=27
1AA]	.	1ee_ 1cc#	(4aa\	1A	ex-	1cc#	ex-	[1a	[1ee
.	.	.	8ee\L)	.	.	.	.	.	.
.	.	.	8eee\J|	.	.	.	.	.	.
.	.	.	(4ccc#\	.	.	.	.	.	.
.	.	.	8gg\L)	.	.	.	.	.	.
.	.	.	8eee\J	.	.	.	.	.	.
!	!	!	!	!	!	!LO:LB:g=original	!	!	!LO:LB:g=original
=28	=28	=28	=28	=28	=28	=28	=28	=28	=28
[1AA	.	1ee] 1cc#	(4aa\	1A	-cel-	1cc#	-cel-	4a/]	4ee\]
.	.	.	8ee\L)	.	.	.	.	8a/L	8ee\L
.	.	.	8ccc#\J	.	.	.	.	8a/J	8ee\J
.	.	.	4aa\	.	.	.	.	4a/	4ee\
!	!	!	!LO:TX:t=P:problem=brzeg karty zaklejony, nuty niewidoczne	!	!	!	!	!	!
.	.	.	4ryy	.	.	.	.	4a/	4ee\
!	!	!	!LO:LB:g=original	!	!	!	!	!LO:LB:g=original	!
=29	=29	=29	=29	=29	=29	=29	=29	=29	=29
*	*	*^	*	*	*	*	*	*	*
2AA/]	.	2ee/	2cc#\	2aa\	2A\	-sis	2cc#\	-sis	2a/	2ee\
2r	.	2ryy	[2ff#\	[2aa\	2r	.	2r	.	2r	2r
*	*	*v	*v	*	*	*	*	*	*	*
!LO:LB:g=original	!	!	!	!	!	!	!	!	!
=30	=30	=30	=30	=30	=30	=30	=30	=30	=30
!LO:TX:t=P:problem=brzeg karty zaklejony, nuty niewidoczne	!	!	!	!	!	!LO:TX:b:t=11	!	!LO:TX:a:t=11	!LO:TX:b:t=11
2ryy	.	4ff#\]	4aa\]	00r	.	00r	.	00r	00r
.	.	4ff#\	4aa\	.	.	.	.	.	.
!LO:TX:a:t=Solo	!	!	!	!	!	!	!	!	!
2BB/	6 5	4ee\	4ggn\	.	.	.	.	.	.
.	4 #	4dd#X\	4ff#\	.	.	.	.	.	.
=31	=31	=31	=31	=31	=31	=31	=31	=31	=31
2E\	.	2b/	4gg\	.	.	.	.	.	.
.	.	.	4dd#X\	.	.	.	.	.	.
4r	.	4r	[2ee\	.	.	.	.	.	.
4G\	6	4b/	.	.	.	.	.	.	.
=32	=32	=32	=32	=32	=32	=32	=32	=32	=32
2A\	n	(2ccn\	4ee\]	.	.	.	.	.	.
.	.	.	4aa\	.	.	.	.	.	.
2B\	6 4	4ee\)	4gg\	.	.	.	.	.	.
.	5 #3r	4dd#X\|	4ff#\	.	.	.	.	.	.
=33	=33	=33	=33	=33	=33	=33	=33	=33	=33
2E\	.	2b/	4gg\	.	.	.	.	.	.
.	.	.	4dd#X\	.	.	.	.	.	.
4r	.	4r	[2ee\	.	.	.	.	.	.
4GG/	6	4b/	.	.	.	.	.	.	.
=34	=34	=34	=34	=34	=34	=34	=34	=34	=34
2AA/	n	(2ccn\	4ee\]	00r	.	00r	.	00r	00r
.	.	.	4aa\	.	.	.	.	.	.
2BB/	6 4	4ee\)	4gg\	.	.	.	.	.	.
.	5 #	4dd#X\|	4ff#\	.	.	.	.	.	.
=35	=35	=35	=35	=35	=35	=35	=35	=35	=35
2EE/	.	4ee\	4gg\	.	.	.	.	.	.
.	.	8gg\L	8bb\L	.	.	.	.	.	.
.	.	8ff#\J	8aa\J	.	.	.	.	.	.
2r	.	8ee\L	8gg\L	.	.	.	.	.	.
.	.	8dd\	8ff#\	.	.	.	.	.	.
.	.	8cc#X\	8ee\	.	.	.	.	.	.
.	.	8b\J	8dd\J	.	.	.	.	.	.
!	!	!LO:LB:g=original	!	!	!	!	!	!	!
=36	=36	=36	=36	=36	=36	=36	=36	=36	=36
2r	.	4a/	4cc#X\	.	.	.	.	.	.
.	.	4ee\	4gg\	.	.	.	.	.	.
2C#/	6 4	4dd\	4ff#\	.	.	.	.	.	.
.	5 3	4cc#\	4ee\	.	.	.	.	.	.
!	!	!	!LO:LB:g=original	!	!	!	!	!	!
=37	=37	=37	=37	=37	=37	=37	=37	=37	=37
2D\	.	2a/	4ff#\	.	.	.	.	.	.
.	.	.	4cc#\	.	.	.	.	.	.
4r	.	4r	[2dd\	.	.	.	.	.	.
4F#\	6	4a/|	.	.	.	.	.	.	.
=38	=38	=38	=38	=38	=38	=38	=38	=38	=38
2G\	.	(2b\	4dd\]	0r	.	0r	.	0r	0r
.	.	.	4gg\	.	.	.	.	.	.
!LO:TX:b:t=verte	!	!	!	!	!	!	!	!	!
2A\	6 4	4dd\)	4ff#\	.	.	.	.	.	.
.	5 3	4cc#\|	4ee\	.	.	.	.	.	.
!LO:PB:g=original	!	!	!	!	!	!	!	!	!
=39	=39	=39	=39	=39	=39	=39	=39	=39	=39
2D\	.	2a/	4ff#\	.	.	.	.	.	.
.	.	.	4cc#\	.	.	.	.	.	.
4r	.	4r	[2dd\	.	.	.	.	.	.
4FF#/	.	4a/	.	.	.	.	.	.	.
=40	=40	=40	=40	=40	=40	=40	=40	=40	=40
2GG/	.	(2b\	4dd\]	1r	.	1r	.	1r	1r
.	.	.	4gg\	.	.	.	.	.	.
2AA/	.	4dd\)	4ff#\	.	.	.	.	.	.
.	.	4cc#\|	4ee\	.	.	.	.	.	.
=41	=41	=41	=41	=41	=41	=41	=41	=41	=41
[1D	.	[1a [1f#	(2dd\	[1d	O-	[1ff#	O-	2f#/	2a/
.	.	.	4a/)	.	.	.	.	2r	2r
.	.	.	4ff#\|	.	.	.	.	.	.
=42	=42	=42	=42	=42	=42	=42	=42	=42	=42
1D_	.	1a] 1f#]	(2dd\	1d]	.	1ff#]	.	2f#/	2a/
.	.	.	4a/)	.	.	.	.	2r	2r
.	.	.	4aa\|	.	.	.	.	.	.
=43	=43	=43	=43	=43	=43	=43	=43	=43	=43
1D]	.	[1a [1f#	(2dd\	1d	-ſan-	1ff#	-san-	[1f#	[1a
.	.	.	4a/)	.	.	.	.	.	.
.	.	.	4ff#\|	.	.	.	.	.	.
=44	=44	=44	=44	=44	=44	=44	=44	=44	=44
4D\	.	1a] 1f#]	2dd\	1d	-na	1ff#	-na	4f#/]	4a/]
4F#\	.	.	.	.	.	.	.	8f#/L	8a/L
.	.	.	.	.	.	.	.	8f#/J	8a/J
4A\	.	.	2a/	.	.	.	.	4f#/	4a/
4d\	.	.	.	.	.	.	.	4f#/	4a/
=45	=45	=45	=45	=45	=45	=45	=45	=45	=45
[1D	.	[1a [1f#	4dd\|	1D	in	1ff#	in	2f#/	2a/
.	.	.	(8a\L	.	.	.	.	.	.
.	.	.	8ff#\J)	.	.	.	.	.	.
.	.	.	4dd\|	.	.	.	.	2r	2r
.	.	.	(8a\L	.	.	.	.	.	.
.	.	.	8ff#\J)	.	.	.	.	.	.
!	!	!	!LO:LB:g=original	!LO:LB:g=original	!	!	!	!	!
=46	=46	=46	=46	=46	=46	=46	=46	=46	=46
1D_	.	1a_ 1f#_	4dd\|	1D	ex-	1ff#	ex-	[1f#	[>1a
.	.	.	(8a\L	.	.	.	.	.	.
.	.	.	8aa\J)	.	.	.	.	.	.
.	.	.	4dd\|	.	.	.	.	.	.
.	.	.	(8a\L	.	.	.	.	.	.
.	.	.	8aa\J)	.	.	.	.	.	.
!	!	!	!	!	!	!	!	!	!LO:LB:g=original
=47	=47	=47	=47	=47	=47	=47	=47	=47	=47
1D]	.	1a] 1f#]	4dd\|	1D	-cel-	1ff#	-cel-	4f#/]	4a/]
.	.	.	(8a\L	.	.	.	.	8f#/L	8a/L
.	.	.	8ff#\J)	.	.	.	.	8f#/J	8a/J
.	.	.	4dd\|	.	.	.	.	4f#/	4a/
.	.	.	(8a\L	.	.	.	.	4f#/	4a/
.	.	.	8ff#\J)	.	.	.	.	.	.
!	!	!	!	!	!	!LO:LB:g=original	!	!LO:LB:g=original	!
=48	=48	=48	=48	=48	=48	=48	=48	=48	=48
2DD/	.	8f#/L	8dd\L	2D/	-ſis	2ff#\	-sis	2f#/	2a/
.	.	8f#/	8a\	.	.	.	.	.	.
.	.	8g/	8b\	.	.	.	.	.	.
.	.	8a/J	8cc#\J	.	.	.	.	.	.
2r	.	8b\L	8dd\L	2r	.	2r	.	2r	2r
.	.	8cc#\	8ee\	.	.	.	.	.	.
.	.	8dd\	8ff#\	.	.	.	.	.	.
.	.	8ee\J	8gg\J	.	.	.	.	.	.
!LO:LB:g=original	!	!	!	!	!	!	!	!	!
=49	=49	=49	=49	=49	=49	=49	=49	=49	=49
2r	.	4ff#\	4aa\	4f#\	O-	4aa\	O-	00r	00r
.	.	4ee\	4gg\	4e\	.	4gg\	.	.	.
4d\	.	[2dd\	[2ff#\	[2d\	.	[2ff#\	.	.	.
4c#\	.	.	.	.	.	.	.	.	.
=50	=50	=50	=50	=50	=50	=50	=50	=50	=50
2.B\	5	4dd\]	4ff#\]	4d\]	.	4ff#\]	.	.	.
.	.	4cc#\	4ee\	4c#\	.	4ee\	.	.	.
.	.	[2b\	[2dd\	[2B\	.	[2dd\	.	.	.
4A\	.	.	.	.	.	.	.	.	.
!	!	!LO:LB:g=original	!	!	!	!	!	!	!
=51	=51	=51	=51	=51	=51	=51	=51	=51	=51
!	!	!LO:TX:t=P:problem=brak zakończenia ligatury	!	!	!	!	!	!	!
2.G\	5	4b/]	4dd\]	4B\]	.	4dd\]	.	.	.
.	.	4a/	4cc#\	4A\	.	4cc#\	.	.	.
.	.	2g/	[2b/	[2G\	.	[2b\	.	.	.
4F#\	.	.	.	.	.	.	.	.	.
=52	=52	=52	=52	=52	=52	=52	=52	=52	=52
2.E\	5	4g/	4b/]	4G\]	.	4b\]	.	.	.
.	.	4f#/	4a/	4F#\	-ſan-	4a\	-san-	.	.
.	.	[2e/	[2g/	2E\	-na	2g\	-na	.	.
4D\	.	.	.	.	.	.	.	.	.
!	!	!	!	!LO:LB:g=original	!	!	!	!	!
=53	=53	=53	=53	=53	=53	=53	=53	=53	=53
4C#/	6 5	4e/]	4g/]	4C#/	in	2.ee\	in	1ee	1gg
4AA/	.	8cc#\L	8ee\L	4AA/	.	.	.	.	.
.	.	8b\J	8dd\J	.	.	.	.	.	.
!	!	!	!LO:LB:g=original	!	!	!	!	!	!
4BB/	.	8a/L	8cc#\L	4BB/	ex-	.	.	.	.
.	.	8g/	8b\	.	.	.	.	.	.
4C#/	.	8f#/	8a\	4C#/	.	4ee\	ex-	.	.
.	.	8e/J	8g\J	.	.	.	.	.	.
=54	=54	=54	=54	=54	=54	=54	=54	=54	=54
4D\	.	4A/	8f#/L	(4D\	-cel-	[1dd	-cel-	[1dd	4ff#\
.	.	.	8a/	.	.	.	.	.	.
4E\	.	4g/	8b/	4E\)	.	.	.	.	4gg\
.	.	.	8cc#/J	.	.	.	.	.	.
4F#\	6	4a/	4dd\	(4F#\	.	.	.	.	4aa\
4G\	.	4b/	4gg\	4G\)	.	.	.	.	8bb\L
.	.	.	.	.	.	.	.	.	8gg\J
!	!	!	!	!	!	!LO:LB:g=original	!	!	!
=55	=55	=55	=55	=55	=55	=55	=55	=55	=55
8A\L	6 4	2dd\	2ff#\	2A\	.	2dd\]	.	2dd\]	2ff#\
8G\	.	.	.	.	.	.	.	.	.
8F#\	.	.	.	.	.	.	.	.	.
8G\J	.	.	.	.	.	.	.	.	.
4A\	5 3	2cc#t\	2eeT\	2AA/	.	2cc#t\	.	2a/	2eeT\
4AA/	.	.	.	.	.	.	.	.	.
!LO:LB:g=original	!	!	!	!	!	!	!	!	!
=56	=56	=56	=56	=56	=56	=56	=56	=56	=56
4D\	8	4d/	4dd\	(4D\	-sis	(4dd\	-sis	4f#/	4dd\
4E\	8	4e/	4ee\	4E\)	.	4ee\)	.	4a/	4ee\
[2F#\	8	[2f#/	[2ff#\	[2F#\	O-	[2ff#\	o-	[2dd\	[2ff#\
=57	=57	=57	=57	=57	=57	=57	=57	=57	=57
4F#\]	8	4f#/]	4ff#\]	4F#\]	.	4ff#\]	.	4dd\]	4ff#\]
4E\	8	4e/	4ee\	4E\	.	4ee\	.	4a/	4ee\
2G\	8	[2g/	[2gg\	[2G\	.	[2gg\	.	[2ee\	[2gg\
=58	=58	=58	=58	=58	=58	=58	=58	=58	=58
4G\	8	4g/]	4gg\]	4G\]	.	4gg\]	.	4ee\]	4gg\]
4F#\	8	4f#/	4ff#\	4F#\	.	4ff#\	.	4dd\	4ff#\
2A\	8	[2a/	[2aa\	[2A\	.	[2a\	.	2ff#\	2aa\
!	!	!	!	!LO:LB:g=original	!	!	!	!	!LO:LB:g=original
=59	=59	=59	=59	=59	=59	=59	=59	=59	=59
!	!	!	!	!	!	!	!	!	!LO:TX:a:t=1
4A\	8	4a/]|	4aa\]	4A\]	.	4a\]	.	1r	1r
4B\	8	4b/|	4bb\	4B\	-ſan-	4b\	.	.	.
4G\	8	4g/|	4gg\	4G\	-na	4gg\	-san-	.	.
4E\	8	4e/|	4ee\	4E\	.	4ee\	-na	.	.
=60	=60	=60	=60	=60	=60	=60	=60	=60	=60
4C#/	8	4c#/|	4cc#\	4C#/	in	4cc#\	in	4r	4r
4AA/	8	4A/|	4a/	4AA/	ex-	4a\	ex-	4a/	4a/
4D\	8	4d/|	4dd\	(4D/	-cel-	(4dd\	-cel-	4dd\	4dd\
4F#\	8	4f#/	4f#/	4F#\)	.	4f#/)	.	4d/	4f#/
!	!	!LO:LB:g=original	!LO:LB:g=original	!	!	!LO:LB:g=original	!	!LO:LB:g=original	!
=61	=61	=61	=61	=61	=61	=61	=61	=61	=61
2A\	.	2a/	2a/	2A\	.	1aT	.	2a/	2a/
2AA/	7	2ee 2a 2e 2A/	2ee 2a 2e 2A/	2AA/	.	.	.	2a/	2eeT\
=62	=62	=62	=62	=62	=62	=62	=62	=62	=62
2DD/	.	2ff# 2a 2d/	2ff# 2a 2d/	2D/	-sis	2dd\	-sis.	2f#/	2dd\
2r	.	2r	2r	2r	.	2r	.	2r	2r
==	==	==	==	==	==	==	==	==	==
*-	*-	*-	*-	*-	*-	*-	*-	*-	*-
!!!system-decoration: [(g1)][(g2)][(g3)]s7
!!!RDF**kern: > = above
!!!RDF**kern: | = vertical stroke
!!!ENC: Andrzej Gręziak
!!!END: 2022-03-30
!!!ENC: Marta Lawrence
!!!END: 2022-04-07
!!!YEC: Copyright 2022 Narodowy Instytut Fryderyka Chopina (https://polishscores.org)
!!!YEM: License CC-BY-4.0 (https://creativecommons.org/licenses/by/4.0)
